src/assets-svg/logouticon.svg

<svg width="20" height="20" viewBox="0 0 20 20" fill="none" xmlns="http://www.w3.org/2000/svg">
<path d="M3 3H11V1H3C2.46957 1 1.96086 1.21071 1.58579 1.58579C1.21071 1.96086 1 2.46957 1 3V17C1 17.5304 1.21071 18.0391 1.58579 18.4142C1.96086 18.7893 2.46957 19 3 19H11V17H3V3Z" fill="#F5FAFF"/>
<path d="M13 5V9H5V11H13V15L19 10L13 5Z" fill="#F5FAFF"/>
</svg>

<svg width="20" height="20" fill="none" xmlns="http://www.w3.org/2000/svg"><path d="M3 3h8V1H3a2 2 0 0 0-2 2v14a2 2 0 0 0 2 2h8v-2H3V3Z" fill="#F5FAFF"/><path d="M13 5v4H5v2h8v4l6-5-6-5Z" fill="#F5FAFF"/></svg>
